usr/share/icons/biglinux-icons-material/scalable/devices/media-flash-memory-stick.svg

<?xml version="1.0" encoding="UTF-8" standalone="no"?>
<svg
   width="24"
   height="24"
   version="1"
   id="svg22220"
   sodipodi:docname="media-flash-memory-stick.svg"
   inkscape:version="1.2.2 (b0a8486541, 2022-12-01)"
   xmlns:inkscape="http://www.inkscape.org/namespaces/inkscape"
   xmlns:sodipodi="http://sodipodi.sourceforge.net/DTD/sodipodi-0.dtd"
   xmlns="http://www.w3.org/2000/svg"
   xmlns:svg="http://www.w3.org/2000/svg">
  <sodipodi:namedview
     id="namedview22222"
     pagecolor="#ffffff"
     bordercolor="#000000"
     borderopacity="0.25"
     inkscape:showpageshadow="2"
     inkscape:pageopacity="0.0"
     inkscape:pagecheckerboard="0"
     inkscape:deskcolor="#d1d1d1"
     showgrid="false"
     inkscape:zoom="9.3691649"
     inkscape:cx="12.487773"
     inkscape:cy="16.70373"
     inkscape:window-width="2560"
     inkscape:window-height="1000"
     inkscape:window-x="1680"
     inkscape:window-y="0"
     inkscape:window-maximized="1"
     inkscape:current-layer="svg22220" />
  <defs
     id="defs22204">
    <linearGradient
       id="a"
       x1="30"
       x2="30"
       y1="8"
       y2="27"
       gradientUnits="userSpaceOnUse"
       gradientTransform="translate(44.507702,-16.757097)">
      <stop
         stop-color="#dbdbdb"
         offset="0"
         id="stop22199" />
      <stop
         stop-color="#b2b2b2"
         offset="1"
         id="stop22201" />
    </linearGradient>
    <radialGradient
       fx="0"
       fy="0"
       cx="0"
       cy="0"
       r="1"
       gradientUnits="userSpaceOnUse"
       gradientTransform="matrix(0,16.500002,-16.500002,0,8.999998,0.749999)"
       spreadMethod="pad"
       id="radialGradient12763-3">
      <stop
         style="stop-opacity:1;stop-color:#a4a4a4"
         offset="0"
         id="stop12759-6" />
      <stop
         style="stop-opacity:1;stop-color:#626262"
         offset="1"
         id="stop12761-7" />
    </radialGradient>
  </defs>
  <g
     id="g12749-5"
     transform="matrix(1.3333333,0,0,1.3333333,-4.52e-4,-0.0051143)"
     style="fill:none">
    <g
       id="g12751-3">
      <g
         id="g12757-5">
        <path
           d="m 7.195,0.836 c 0.09,0 0.176,-0.012 0.258,-0.035 1.078,-0.071 2.156,-0.067 3.231,0.008 0.976,0.078 1.921,0.289 2.836,0.636 1.519,0.625 2.558,1.711 3.121,3.254 0.316,0.93 0.507,1.887 0.566,2.867 0.078,1.235 0.051,2.465 -0.086,3.696 -0.105,0.863 -0.328,1.691 -0.672,2.488 -0.637,1.383 -1.672,2.336 -3.101,2.859 C 12.191,17 11,17.207 9.773,17.227 8.398,17.301 7.035,17.195 5.684,16.918 3.203,16.367 1.668,14.852 1.09,12.375 0.844,11.262 0.73,10.133 0.754,8.992 0.727,7.777 0.855,6.582 1.141,5.402 1.75,3.09 3.219,1.656 5.547,1.102 6.09,0.969 6.641,0.879 7.195,0.836 Z"
           style="fill:url(#radialGradient12763-3);fill-rule:evenodd;stroke:none"
           id="path12765-6" />
      </g>
    </g>
  </g>
  <g
     id="g12611"
     transform="matrix(0.31110324,0,0,0.31110324,23.011643,-1.9726235)"
     style="fill:none">
    <g
       id="g12598"
       transform="translate(0.07135726)">
      <g
         id="g12585">
        <rect
           style="opacity:1;fill:#eef1f4;fill-opacity:1;stroke-linecap:round;stroke-linejoin:round;stroke-dashoffset:1.89038;stroke-opacity:0.974255;paint-order:stroke markers fill"
           id="rect12438"
           width="14.608696"
           height="14.608696"
           x="-43.22197"
           y="21.254005"
           rx="0.76887792"
           ry="0.76887792" />
        <rect
           style="opacity:1;fill:#bfc8d5;fill-opacity:1;stroke-linecap:round;stroke-linejoin:round;stroke-dashoffset:1.89038;stroke-opacity:0.974255;paint-order:stroke markers fill"
           id="rect12091"
           width="14.608696"
           height="14.608696"
           x="-42.320366"
           y="21.254005"
           rx="0.76887792"
           ry="0.76887792" />
        <rect
           style="opacity:1;fill:#dce2e9;fill-opacity:1;stroke-linecap:round;stroke-linejoin:round;stroke-dashoffset:1.89038;stroke-opacity:0.974255;paint-order:stroke markers fill"
           id="rect12089"
           width="14.608696"
           height="14.608696"
           x="-42.727688"
           y="21.254005"
           rx="0.76887792"
           ry="0.76887792" />
      </g>
      <g
         id="g12589"
         transform="translate(-0.20659733)">
        <rect
           class="cls-15"
           x="-28.694553"
           y="-39.977043"
           width="2.590517"
           height="2.590517"
           rx="0.33197573"
           transform="rotate(-90)"
           id="rect10455"
           style="fill:#5a6271;fill-opacity:1;stroke-width:0.110659" />
        <rect
           class="cls-15"
           x="-28.694553"
           y="-33.133919"
           width="2.590517"
           height="2.590517"
           rx="0.33197573"
           transform="rotate(-90)"
           id="rect10457"
           style="fill:#5a6271;fill-opacity:1;stroke-width:0.110659" />
      </g>
    </g>
    <g
       id="g12580">
      <path
         id="rect10587"
         style="opacity:1;fill:#02679a;fill-opacity:1;stroke-linecap:round;stroke-linejoin:round;stroke-dashoffset:1.89038;stroke-opacity:0.974255;paint-order:stroke markers fill"
         d="m -45.417923,34.710174 v 23.807963 c 0,5.552667 4.468817,10.021485 10.021484,10.021485 5.552666,0 10.023437,-4.468818 10.023437,-10.021485 V 34.710174 Z"
         sodipodi:nodetypes="cssscc" />
      <path
         class="cls-6"
         d="m -32.329114,47.478853 h -1.559178 v 1.559179 h 0.47583 v 1.408685 l -1.693075,1.693074 v -5.334848 h 0.818874 l -1.122078,-1.943165 -1.122078,1.943165 h 0.818873 v 7.167354 l -1.560286,-1.560285 v -1.426388 a 0.8908015,0.8908015 0 1 0 -0.606408,0 v 1.677584 l 0.390624,0.390624 v 0 l 1.777177,1.777176 v 0.750266 a 1.4197494,1.4197494 0 1 0 0.606408,0 v -2.58277 l 1.961977,-1.954233 v 0 l 0.341936,-0.341935 v -1.659879 h 0.475831 z"
         id="path10463"
         style="fill:#ffffff;stroke-width:0.110659" />
    </g>
  </g>
  <path
     id="circle11857"
     style="fill:#47a6f5;fill-opacity:1;fill-rule:evenodd;stroke-width:0.472223;paint-order:fill markers stroke"
     d="m 18.464186,11.411114 a 8.4999999,8.4999999 0 0 0 -8.5,8.500001 8.4999999,8.4999999 0 0 0 0.566406,3.048828 c 0.834373,0.0542 1.673515,0.05939 2.515625,0.01561 1.632125,-0.02767 3.218996,-0.302269 4.763671,-0.824219 1.906208,-0.699323 3.286171,-1.970004 4.136721,-3.8125 0.458606,-1.06269 0.755528,-2.169437 0.892576,-3.320312 0.08549,-0.764137 0.137842,-1.529192 0.160142,-2.294922 a 8.4999999,8.4999999 0 0 0 -4.535141,-1.312486 z" />
  <path
     id="path22455"
     style="stroke-width:0.531249;fill:#ffffff;fill-opacity:1"
     d="M 17.908203 12.966797 L 14.720703 21.466797 L 18.439453 20.935547 L 18.351562 21.912109 C 19.140671 21.556152 19.827495 21.089962 20.414062 20.513672 L 21.095703 18.810547 L 17.376953 19.341797 L 17.908203 12.966797 z " />
</svg>

<svg xmlns="http://www.w3.org/2000/svg" width="24" height="24" version="1"><defs><radialGradient id="a" cx="0" cy="0" r="1" fx="0" fy="0" gradientTransform="matrix(0 16.5 -16.5 0 9 .75)" gradientUnits="userSpaceOnUse" spreadMethod="pad"><stop offset="0" style="stop-opacity:1;stop-color:#a4a4a4"/><stop offset="1" style="stop-opacity:1;stop-color:#626262"/></radialGradient></defs><g style="fill:none"><path d="M7.195.836c.09 0 .176-.012.258-.035a23.86 23.86 0 0 1 3.231.008 10.26 10.26 0 0 1 2.836.636c1.519.625 2.558 1.711 3.121 3.254.316.93.507 1.887.566 2.867a21.227 21.227 0 0 1-.086 3.696 8.976 8.976 0 0 1-.672 2.488c-.637 1.383-1.672 2.336-3.101 2.859a11.693 11.693 0 0 1-3.575.618 15.998 15.998 0 0 1-4.089-.309c-2.481-.551-4.016-2.066-4.594-4.543a14.244 14.244 0 0 1-.336-3.383c-.027-1.215.101-2.41.387-3.59.609-2.312 2.078-3.746 4.406-4.3A10.27 10.27 0 0 1 7.195.836Z" style="fill:url(#a);fill-rule:evenodd;stroke:none" transform="matrix(1.33333 0 0 1.33333 0 -.005)"/></g><g style="fill:none"><g transform="matrix(.3111 0 0 .3111 23.034 -1.973)"><rect width="14.609" height="14.609" x="-43.222" y="21.254" rx=".769" ry=".769" style="opacity:1;fill:#eef1f4;fill-opacity:1;stroke-linecap:round;stroke-linejoin:round;stroke-dashoffset:1.89038;stroke-opacity:.974255;paint-order:stroke markers fill"/><rect width="14.609" height="14.609" x="-42.32" y="21.254" rx=".769" ry=".769" style="opacity:1;fill:#bfc8d5;fill-opacity:1;stroke-linecap:round;stroke-linejoin:round;stroke-dashoffset:1.89038;stroke-opacity:.974255;paint-order:stroke markers fill"/><rect width="14.609" height="14.609" x="-42.728" y="21.254" rx=".769" ry=".769" style="opacity:1;fill:#dce2e9;fill-opacity:1;stroke-linecap:round;stroke-linejoin:round;stroke-dashoffset:1.89038;stroke-opacity:.974255;paint-order:stroke markers fill"/></g><g transform="matrix(0 -.3111 .3111 0 22.97 -1.973)"><rect width="2.591" height="2.591" x="-28.695" y="-39.977" class="cls-15" rx=".332" style="fill:#5a6271;fill-opacity:1;stroke-width:.110659"/><rect width="2.591" height="2.591" x="-28.695" y="-33.134" class="cls-15" rx=".332" style="fill:#5a6271;fill-opacity:1;stroke-width:.110659"/></g><path d="M-45.418 34.71v23.808A9.999 9.999 0 0 0-35.396 68.54a10 10 0 0 0 10.023-10.022V34.71Z" style="opacity:1;fill:#02679a;fill-opacity:1;stroke-linecap:round;stroke-linejoin:round;stroke-dashoffset:1.89038;stroke-opacity:.974255;paint-order:stroke markers fill" transform="matrix(.3111 0 0 .3111 23.012 -1.973)"/><path d="M-32.33 47.479h-1.558v1.559h.476v1.409l-1.694 1.693v-5.335h.82l-1.123-1.943-1.122 1.943h.82v7.167l-1.561-1.56v-1.426a.89.89 0 1 0-.607 0v1.677l.391.39 1.777 1.778v.75a1.42 1.42 0 1 0 .607 0V53l1.962-1.955.341-.342v-1.66h.476z" class="cls-6" style="fill:#fff;stroke-width:.110659" transform="matrix(.3111 0 0 .3111 23.012 -1.973)"/></g><path d="M18.464 11.411a8.5 8.5 0 0 0-8.5 8.5 8.5 8.5 0 0 0 .567 3.049c.834.054 1.673.06 2.515.016a15.615 15.615 0 0 0 4.764-.825c1.906-.699 3.286-1.97 4.137-3.812a11.88 11.88 0 0 0 .892-3.32c.086-.765.138-1.53.16-2.295a8.5 8.5 0 0 0-4.535-1.313z" style="fill:#47a6f5;fill-opacity:1;fill-rule:evenodd;stroke-width:.472223;paint-order:fill markers stroke"/><path d="m17.908 12.967-3.187 8.5 3.718-.531-.087.976a7.046 7.046 0 0 0 2.062-1.398l.682-1.703-3.719.53.531-6.374z" style="stroke-width:.531249;fill:#fff;fill-opacity:1"/></svg>
